svgs/sharp-regular/code-merge.svg

<svg xmlns="http://www.w3.org/2000/svg" viewBox="0 0 448 512"><!--! Font Awesome Pro 6.4.0 by @fontawesome - https://fontawesome.com License - https://fontawesome.com/license (Commercial License) Copyright 2023 Fonticons, Inc. --><path d="M48 48v64h64V48H48zM0 0H48h64 48V48v64 48H112h-6.8c7.7 49.8 50.8 88 102.8 88h80v-8V192h48 64 48v48 64 48H400 336 288V304v-8H208c-40.2 0-76.8-15.6-104-41.1V352h8 48v48 64 48H112 48 0V464 400 352H48h8V160H48 0V112 48 0zM48 400v64h64V400H48zM400 240H336v64h64V240z"/></svg>

<svg xmlns="http://www.w3.org/2000/svg" viewBox="0 0 448 512"><!--! Font Awesome Pro 6.6.0 by @fontawesome - https://fontawesome.com License - https://fontawesome.com/license (Commercial License) Copyright 2024 Fonticons, Inc. --><path d="M48 48l0 64 64 0 0-64L48 48zM0 0L48 0l64 0 48 0 0 48 0 64 0 48-48 0-6.8 0c7.7 49.8 50.8 88 102.8 88l80 0 0-8 0-48 48 0 64 0 48 0 0 48 0 64 0 48-48 0-64 0-48 0 0-48 0-8-80 0c-40.2 0-76.8-15.6-104-41.1l0 97.1 8 0 48 0 0 48 0 64 0 48-48 0-64 0L0 512l0-48 0-64 0-48 48 0 8 0 0-192-8 0L0 160l0-48L0 48 0 0zM48 400l0 64 64 0 0-64-64 0zM400 240l-64 0 0 64 64 0 0-64z"/></svg>
